X:505
T:Strathspey. RH.505
R:strathspey
S:Rev.R.Harrison’s MS,c1815,Cumbria
N:Half-bar missing.
O:England
A:Temple Sowerby,Cumbria
Z:vmp.Simon Wilson. Review PJH, 2008.
M:C|
L:1/8
Q:1/2=60
K:G
c|BGGf g2d2|egdg egab|\
BGGf g2df|a/g/f/e/ e/d/c/B/|cA Az:|!
|:a/b/|c’>ab>f a>fg2|d2e/d/c/B/ dGBb|\
c’>ab>g afg2|d2e/d/c/B/ eAcb|!
c’>ab>g afg2|d2e/d/c/B/ dGBd|\
((3egc’) ((3egc’) ((3Bdg) ((3dBG)|c’abg fggb|]

